resources/svg/major-wand.svg

<svg xmlns="http://www.w3.org/2000/svg" viewBox="0 0 20 20" fill="currentColor"><path d="M15.6656 0.376176C16.161 -0.125392 16.8545 -0.125392 17.3498 0.376176L19.6285 2.68339C20.1238 3.18495 20.1238 3.88715 19.6285 4.38871L15.9628 8L12 3.98746L15.6656 0.376176Z" fill="#5C5F62"/><path d="M10.9933 5L15 9.00668L4.3823 19.6244C3.88147 20.1252 3.1803 20.1252 2.67947 19.6244L0.375626 17.3205C-0.125209 16.8197 -0.125209 16.1185 0.375626 15.6177L10.9933 5Z" fill="#5C5F62"/><path d="M16 13C16 12.4 16.4 12 17 12C17.6 12 18 12.4 18 13C18 13.6 18.4 14 19 14C19.6 14 20 14.4 20 15C20 15.6 19.6 16 19 16C18.4 16 18 16.4 18 17C18 17.6 17.6 18 17 18C16.4 18 16 17.6 16 17C16 16.4 15.6 16 15 16C14.4 16 14 15.6 14 15C14 14.4 14.4 14 15 14C15.6 14 16 13.6 16 13Z" fill="#5C5F62"/><path d="M4 1C4 0.4 4.4 0 5 0C5.6 0 6 0.4 6 1C6 1.6 6.4 2 7 2C7.6 2 8 2.4 8 3C8 3.6 7.6 4 7 4C6.4 4 6 4.4 6 5C6 5.6 5.6 6 5 6C4.4 6 4 5.6 4 5C4 4.4 3.6 4 3 4C2.4 4 2 3.6 2 3C2 2.4 2.4 2 3 2C3.6 2 4 1.6 4 1Z" fill="#5C5F62"/></svg>

<svg xmlns="http://www.w3.org/2000/svg" viewBox="0 0 20 20" fill="currentColor"><path d="M15.666.376c.495-.501 1.189-.501 1.684 0l2.278 2.307c.496.502.496 1.204 0 1.706l-3.665 3.611-3.963-4.013 3.666-3.61Z"/><path d="m10.993 5 4.007 4.007-10.618 10.617c-.5.501-1.202.501-1.703 0l-2.303-2.303c-.501-.501-.501-1.203 0-1.703l10.617-10.618Z"/><path d="M16 13c0-.6.4-1 1-1s1 .4 1 1 .4 1 1 1 1 .4 1 1-.4 1-1 1-1 .4-1 1-.4 1-1 1-1-.4-1-1-.4-1-1-1-1-.4-1-1 .4-1 1-1 1-.4 1-1Z"/><path d="M4 1c0-.6.4-1 1-1s1 .4 1 1 .4 1 1 1 1 .4 1 1-.4 1-1 1-1 .4-1 1-.4 1-1 1-1-.4-1-1-.4-1-1-1-1-.4-1-1 .4-1 1-1 1-.4 1-1Z"/></svg>
